X: 305771
M: 2/4
L: 1/16
K: G
d2d2 g3d | d2ed d2B2 | G2G2 GABc |[1 d2ed d2 :|[2 B2cB z2 H|]
c2A2 A2Ac | B2G2 G2Bd | egfe dcBA | B2G2G2 Gd |\
c2A2 Aedc | B2G2 G2Bd | egfe dcBA | G2g2"^D.C."g2 :|


